Assets/Icons/kasa-smart.svg

<svg xmlns="http://www.w3.org/2000/svg" width="24" height="24" viewBox="0 0 24 24"><path fill="currentColor" d="M12 0q-.75 0-1.5.75L7.97 3.28l8.83 8.83q1.5 1.5 1.5 3V24h3.3q2.4 0 2.4-2.4v-8.85q0-1.5-1.5-3l-9-9Q12.75 0 12 0M6.9 4.34L2.89 8.37L9.6 15.1q1.5 1.5 1.5 3V24h5.7v-8.89c-.03-.83-.6-1.46-1.06-1.94L6.91 4.34zm-5.08 5.1l-.32.31q-1.5 1.5-1.5 3v8.85Q0 24 2.4 24h7.2v-5.9c-.03-.8-.56-1.42-1.06-1.95Z"/></svg>

<svg version="1.2" xmlns="http://www.w3.org/2000/svg" viewBox="0 0 24 24" width="24" height="24"><style></style><path  d="m12 0q-0.8 0-1.5 0.8l-2.5 2.5 8.8 8.8q1.5 1.5 1.5 3v8.9h3.3q2.4 0 2.4-2.4v-8.8q0-1.5-1.5-3l-9-9q-0.7-0.8-1.5-0.8zm-5.1 4.3l-4 4.1 6.7 6.7q1.5 1.5 1.5 3v5.9h5.7v-8.9c0-0.8-0.6-1.5-1.1-1.9 0 0-8.8-8.9-8.8-8.9zm-5.1 5.1l-0.3 0.4q-1.5 1.5-1.5 3v8.8q0 2.4 2.4 2.4h7.2v-5.9c0-0.8-0.6-1.4-1.1-1.9z"/></svg>
